products/org.csstudio.iter.css.product/SymbolLibrary_quad_hd/SVG/Electrical/Miscellaneous/EQ Power Factor Capacitor.svg

<?xml version="1.0" encoding="UTF-8" standalone="no"?>
<!--
/*******************************************************************************
* Copyright (c) 2010-2016 ITER Organization.
* All rights reserved. This program and the accompanying materials
* are made available under the terms of the Eclipse Public License v1.0
* which accompanies this distribution, and is available at
* http://www.eclipse.org/legal/epl-v10.html
******************************************************************************/
-->
<!--
/*******************************************************************************
* Copyright (c) 2010-2016 ITER Organization.
* All rights reserved. This program and the accompanying materials
* are made available under the terms of the Eclipse Public License v1.0
* which accompanies this distribution, and is available at
* http://www.eclipse.org/legal/epl-v10.html
******************************************************************************/
-->

<svg
   xmlns:dc="http://purl.org/dc/elements/1.1/"
   xmlns:cc="http://creativecommons.org/ns#"
   xmlns:rdf="http://www.w3.org/1999/02/22-rdf-syntax-ns#"
   xmlns:svg="http://www.w3.org/2000/svg"
   xmlns="http://www.w3.org/2000/svg"
   xmlns:sodipodi="http://sodipodi.sourceforge.net/DTD/sodipodi-0.dtd"
   xmlns:inkscape="http://www.inkscape.org/namespaces/inkscape"
   width="99pt"
   height="99pt"
   viewBox="0 0 99 99"
   version="1.1"
   id="svg2"
   inkscape:version="0.91 r13725"
   sodipodi:docname="EQ Power Factor Capacitor.svg">
  <metadata
     id="metadata39">
    <rdf:RDF>
      <cc:Work
         rdf:about="">
        <dc:format>image/svg+xml</dc:format>
        <dc:type
           rdf:resource="http://purl.org/dc/dcmitype/StillImage" />
        <dc:title />
      </cc:Work>
    </rdf:RDF>
  </metadata>
  <defs
     id="defs37" />
  <sodipodi:namedview
     pagecolor="#ffffff"
     bordercolor="#666666"
     borderopacity="1"
     objecttolerance="10"
     gridtolerance="10"
     guidetolerance="10"
     inkscape:pageopacity="0"
     inkscape:pageshadow="2"
     inkscape:window-width="1366"
     inkscape:window-height="706"
     id="namedview35"
     showgrid="false"
     inkscape:zoom="1.5"
     inkscape:cx="-36.458333"
     inkscape:cy="61.875"
     inkscape:window-x="-8"
     inkscape:window-y="-8"
     inkscape:window-maximized="1"
     inkscape:current-layer="svg2" />
  <g
     id="surface1"
     transform="matrix(0.79778268,0,0,0.7986663,10.260617,10.259272)"
     style="stroke-width:1.69125381;stroke-miterlimit:3;stroke-dasharray:none">
    <path
       style="fill:#ffffff;fill-opacity:1;fill-rule:evenodd;stroke:#000000;stroke-width:0.90200203;stroke-linecap:round;stroke-linejoin:round;stroke-miterlimit:3;stroke-opacity:1;stroke-dasharray:none"
       d="m -2.82942e-4,52.375349 0.031250042,0 0,0.03125 -0.031250042,0 z"
       transform="matrix(1.875,0,0,1.875,1.367718,-96.977201)"
       id="path5"
       inkscape:connector-curvature="0" />
    <path
       style="fill:#ffffff;fill-opacity:1;fill-rule:evenodd;stroke:#000000;stroke-width:0.90200203;stroke-linecap:round;stroke-linejoin:round;stroke-miterlimit:3;stroke-opacity:1;stroke-dasharray:none"
       d="m -3.5878e-4,52.375283 0.03124998,0 0,0.03125 -0.03124998,0 z"
       transform="matrix(1.875,0,0,1.875,96.977235,-1.367703)"
       id="path7"
       inkscape:connector-curvature="0" />
    <path
       style="fill:#ffffff;fill-opacity:1;fill-rule:evenodd;stroke:#000000;stroke-width:0.90200203;stroke-linecap:round;stroke-linejoin:round;stroke-miterlimit:3;stroke-opacity:1;stroke-dasharray:none"
       d="m 8.33443e-4,1.440815 51.022924557,0 0,50.966675 -51.022924557,0 z"
       transform="matrix(1.875,0,0,1.875,1.35,-1.349966)"
       id="path9"
       inkscape:connector-curvature="0" />
    <path
       style="fill:#ffffff;fill-opacity:1;fill-rule:evenodd;stroke:#000000;stroke-width:0.90200203;stroke-linecap:round;stroke-linejoin:round;stroke-miterlimit:3;stroke-opacity:1;stroke-dasharray:none"
       d="m 2.30447e-4,38.799916 13.606252553,0 0,13.606252 -13.606252553,0 z"
       transform="matrix(1.875,0,0,1.875,5.495662,-68.398268)"
       id="path11"
       inkscape:connector-curvature="0" />
    <path
       style="fill:#ffffff;fill-opacity:1;fill-rule:evenodd;stroke:#000000;stroke-width:0.70531548;stroke-linecap:round;stroke-linejoin:round;stroke-miterlimit:3;stroke-dasharray:none;stroke-opacity:1"
       d="m 12.873051,17.319845 5.18303,-7.5735149 5.663932,0 -6.433372,5.9030299 5.150973,0 -10.334003,9.498736 5.43951,-7.828251 z"
       id="path13"
       inkscape:connector-curvature="0" />
    <path
       style="fill:none;stroke:#000000;stroke-width:0.90200203;stroke-linecap:round;stroke-linejoin:round;stroke-miterlimit:3;stroke-opacity:1;stroke-dasharray:none"
       d="m 26.359072,34.35967 8.220834,-4.739584"
       transform="matrix(1.875,0,0,1.875,11.873623,-11.873589)"
       id="path15"
       inkscape:connector-curvature="0" />
    <path
       style="fill:none;stroke:#000000;stroke-width:0.90200203;stroke-linecap:round;stroke-linejoin:round;stroke-miterlimit:3;stroke-dasharray:none;stroke-opacity:1"
       d="M 28.040322,26.920085 19.840321,12.720083 11.650736,26.920085"
       transform="matrix(1.875,0,0,1.875,11.873623,-11.873589)"
       id="path17"
       inkscape:connector-curvature="0" />
    <path
       style="fill:none;stroke:#000000;stroke-width:0.90200203;stroke-linecap:round;stroke-linejoin:round;stroke-miterlimit:3;stroke-opacity:1;stroke-dasharray:none"
       d="m 23.769488,29.880502 8.220835,-4.75"
       transform="matrix(1.875,0,0,1.875,11.873623,-11.873589)"
       id="path19"
       inkscape:connector-curvature="0" />
    <path
       style="fill:none;stroke:#000000;stroke-width:0.90200203;stroke-linecap:round;stroke-linejoin:round;stroke-miterlimit:3;stroke-opacity:1;stroke-dasharray:none"
       d="m 31.059072,32.149253 8.631252,15.081252"
       transform="matrix(1.875,0,0,1.875,11.873623,-11.873589)"
       id="path21"
       inkscape:connector-curvature="0" />
    <path
       style="fill:none;stroke:#000000;stroke-width:0.90200203;stroke-linecap:round;stroke-linejoin:round;stroke-miterlimit:3;stroke-opacity:1;stroke-dasharray:none"
       d="M 13.329903,34.35967 5.109068,29.620086"
       transform="matrix(1.875,0,0,1.875,11.873623,-11.873589)"
       id="path23"
       inkscape:connector-curvature="0" />
    <path
       style="fill:none;stroke:#000000;stroke-width:0.90200203;stroke-linecap:round;stroke-linejoin:round;stroke-miterlimit:3;stroke-opacity:1;stroke-dasharray:none"
       d="m 15.90907,29.880502 -8.208335,-4.75"
       transform="matrix(1.875,0,0,1.875,11.873623,-11.873589)"
       id="path25"
       inkscape:connector-curvature="0" />
    <path
       style="fill:none;stroke:#000000;stroke-width:0.90200203;stroke-linecap:round;stroke-linejoin:round;stroke-miterlimit:3;stroke-opacity:1;stroke-dasharray:none"
       d="m 8.629902,32.149253 -8.629167701,15.081252 16.818752701,0"
       transform="matrix(1.875,0,0,1.875,11.873623,-11.873589)"
       id="path27"
       inkscape:connector-curvature="0" />
    <path
       style="fill:none;stroke:#000000;stroke-width:0.90200203;stroke-linecap:round;stroke-linejoin:round;stroke-miterlimit:3;stroke-opacity:1;stroke-dasharray:none"
       d="m 17.250737,52.409672 0,-9.489584"
       transform="matrix(1.875,0,0,1.875,11.873623,-11.873589)"
       id="path29"
       inkscape:connector-curvature="0" />
    <path
       style="fill:none;stroke:#000000;stroke-width:0.90200203;stroke-linecap:round;stroke-linejoin:round;stroke-miterlimit:3;stroke-opacity:1;stroke-dasharray:none"
       d="m 39.25074,47.230505 -16.391669,0"
       transform="matrix(1.875,0,0,1.875,11.873623,-11.873589)"
       id="path31"
       inkscape:connector-curvature="0" />
    <path
       style="fill:none;stroke:#000000;stroke-width:0.90200203;stroke-linecap:round;stroke-linejoin:round;stroke-miterlimit:3;stroke-opacity:1;stroke-dasharray:none"
       d="m 22.429904,52.409672 0,-9.489584"
       transform="matrix(1.875,0,0,1.875,11.873623,-11.873589)"
       id="path33"
       inkscape:connector-curvature="0" />
  </g>
</svg>

<?xml version="1.0" encoding="UTF-8"?>
<!--
/*******************************************************************************
* Copyright (c) 2010-2016 ITER Organization.
* All rights reserved. This program and the accompanying materials
* are made available under the terms of the Eclipse Public License v1.0
* which accompanies this distribution, and is available at
* http://www.eclipse.org/legal/epl-v10.html
******************************************************************************/
-->
<svg xmlns="http://www.w3.org/2000/svg" xmlns:xlink="http://www.w3.org/1999/xlink" width="99pt" height="99pt" viewBox="0 0 99 99" version="1.1">
<g id="surface1">
<path style="fill-rule:evenodd;fill:rgb(100%,100%,100%);fill-opacity:1;stroke-width:0.24;stroke-linecap:round;stroke-linejoin:round;stroke:rgb(0%,0%,0%);stroke-opacity:1;stroke-miterlimit:3;" d="M -0.000282942 52.375349 L 0.0309671 52.375349 L 0.0309671 52.406599 L -0.000282942 52.406599 Z " transform="matrix(1.875,0,0,1.875,1.367718,-96.977201)"/>
<path style="fill-rule:evenodd;fill:rgb(100%,100%,100%);fill-opacity:1;stroke-width:0.24;stroke-linecap:round;stroke-linejoin:round;stroke:rgb(0%,0%,0%);stroke-opacity:1;stroke-miterlimit:3;" d="M -0.00035878 52.375283 L 0.0308912 52.375283 L 0.0308912 52.406533 L -0.00035878 52.406533 Z " transform="matrix(1.875,0,0,1.875,96.977235,-1.367703)"/>
<path style="fill-rule:evenodd;fill:rgb(100%,100%,100%);fill-opacity:1;stroke-width:0.72;stroke-linecap:round;stroke-linejoin:round;stroke:rgb(0%,0%,0%);stroke-opacity:1;stroke-miterlimit:3;" d="M 0.000833443 1.440815 L 51.023758 1.440815 L 51.023758 52.40749 L 0.000833443 52.40749 Z " transform="matrix(1.875,0,0,1.875,1.35,-1.349966)"/>
<path style="fill-rule:evenodd;fill:rgb(100%,100%,100%);fill-opacity:1;stroke-width:0.720001;stroke-linecap:round;stroke-linejoin:round;stroke:rgb(0%,0%,0%);stroke-opacity:1;stroke-miterlimit:3;" d="M 0.000230447 38.799916 L 13.606483 38.799916 L 13.606483 52.406168 L 0.000230447 52.406168 Z " transform="matrix(1.875,0,0,1.875,5.495662,-68.398268)"/>
<path style="fill-rule:evenodd;fill:rgb(100%,100%,100%);fill-opacity:1;stroke-width:0.24;stroke-linecap:round;stroke-linejoin:round;stroke:rgb(0%,0%,0%);stroke-opacity:1;stroke-miterlimit:3;" d="M 0.300208 49.08052 L 2.321041 45.859686 L 4.529375 45.859686 L 2.021041 48.370103 L 4.029375 48.370103 L 0.000207805 52.409687 L 2.121041 49.08052 Z " transform="matrix(1.875,0,0,1.875,13.99961,-75.014242)"/>
<path style="fill:none;stroke-width:0.72;stroke-linecap:round;stroke-linejoin:round;stroke:rgb(0%,0%,0%);stroke-opacity:1;stroke-miterlimit:3;" d="M 26.359072 34.35967 L 34.579906 29.620086 " transform="matrix(1.875,0,0,1.875,11.873623,-11.873589)"/>
<path style="fill:none;stroke-width:0.72;stroke-linecap:round;stroke-linejoin:round;stroke:rgb(0%,0%,0%);stroke-opacity:1;stroke-miterlimit:3;" d="M 28.040322 26.920085 L 19.840321 12.720083 L 11.650736 26.920085 " transform="matrix(1.875,0,0,1.875,11.873623,-11.873589)"/>
<path style="fill:none;stroke-width:0.72;stroke-linecap:round;stroke-linejoin:round;stroke:rgb(0%,0%,0%);stroke-opacity:1;stroke-miterlimit:3;" d="M 23.769488 29.880502 L 31.990323 25.130502 " transform="matrix(1.875,0,0,1.875,11.873623,-11.873589)"/>
<path style="fill:none;stroke-width:0.72;stroke-linecap:round;stroke-linejoin:round;stroke:rgb(0%,0%,0%);stroke-opacity:1;stroke-miterlimit:3;" d="M 31.059072 32.149253 L 39.690324 47.230505 " transform="matrix(1.875,0,0,1.875,11.873623,-11.873589)"/>
<path style="fill:none;stroke-width:0.72;stroke-linecap:round;stroke-linejoin:round;stroke:rgb(0%,0%,0%);stroke-opacity:1;stroke-miterlimit:3;" d="M 13.329903 34.35967 L 5.109068 29.620086 " transform="matrix(1.875,0,0,1.875,11.873623,-11.873589)"/>
<path style="fill:none;stroke-width:0.72;stroke-linecap:round;stroke-linejoin:round;stroke:rgb(0%,0%,0%);stroke-opacity:1;stroke-miterlimit:3;" d="M 15.90907 29.880502 L 7.700735 25.130502 " transform="matrix(1.875,0,0,1.875,11.873623,-11.873589)"/>
<path style="fill:none;stroke-width:0.72;stroke-linecap:round;stroke-linejoin:round;stroke:rgb(0%,0%,0%);stroke-opacity:1;stroke-miterlimit:3;" d="M 8.629902 32.149253 L 0.000734299 47.230505 L 16.819487 47.230505 " transform="matrix(1.875,0,0,1.875,11.873623,-11.873589)"/>
<path style="fill:none;stroke-width:0.72;stroke-linecap:round;stroke-linejoin:round;stroke:rgb(0%,0%,0%);stroke-opacity:1;stroke-miterlimit:3;" d="M 17.250737 52.409672 L 17.250737 42.920088 " transform="matrix(1.875,0,0,1.875,11.873623,-11.873589)"/>
<path style="fill:none;stroke-width:0.72;stroke-linecap:round;stroke-linejoin:round;stroke:rgb(0%,0%,0%);stroke-opacity:1;stroke-miterlimit:3;" d="M 39.25074 47.230505 L 22.859071 47.230505 " transform="matrix(1.875,0,0,1.875,11.873623,-11.873589)"/>
<path style="fill:none;stroke-width:0.72;stroke-linecap:round;stroke-linejoin:round;stroke:rgb(0%,0%,0%);stroke-opacity:1;stroke-miterlimit:3;" d="M 22.429904 52.409672 L 22.429904 42.920088 " transform="matrix(1.875,0,0,1.875,11.873623,-11.873589)"/>
</g>
</svg>
